img/svg/footer/socials/github.svg

<svg width="46" height="46" viewBox="0 0 46 46" fill="none" xmlns="http://www.w3.org/2000/svg">
<circle cx="23" cy="23" r="22.5" fill="#18181B" stroke="url(#paint0_linear_52_1569)"/>
<path fill-rule="evenodd" clip-rule="evenodd" d="M24.001 11.8711C18.1016 11.8711 13.3555 16.6172 13.3555 22.5166C13.3555 27.2184 16.4161 31.2105 20.6299 32.6299C21.1622 32.7186 21.3396 32.4081 21.3396 32.0976C21.3396 31.8315 21.3396 31.1661 21.3396 30.279C18.3677 30.9444 17.7468 28.8596 17.7468 28.8596C17.2588 27.6176 16.5491 27.3071 16.5491 27.3071C15.5733 26.6418 16.6378 26.6418 16.6378 26.6418C17.7024 26.7305 18.279 27.7507 18.279 27.7507C19.2105 29.3919 20.763 28.904 21.384 28.6378C21.4727 27.9281 21.7388 27.4846 22.0493 27.2184C19.6984 26.9523 17.2145 26.0208 17.2145 21.94C17.2145 20.7867 17.6137 19.8109 18.3234 19.1012C18.2347 18.8351 17.8355 17.7705 18.4121 16.2624C18.4121 16.2624 19.2992 15.9962 21.3396 17.3713C22.1824 17.1495 23.1139 17.0164 24.001 17.0164C24.8881 17.0164 25.8196 17.1495 26.6624 17.3713C28.7028 15.9962 29.5899 16.2624 29.5899 16.2624C30.1665 17.7261 29.8117 18.7907 29.6786 19.1012C30.344 19.8552 30.7875 20.7867 30.7875 21.94C30.7875 26.0208 28.3036 26.9079 25.9083 27.1741C26.3075 27.4846 26.618 28.1499 26.618 29.1257C26.618 30.5451 26.618 31.6984 26.618 32.0533C26.618 32.3194 26.7955 32.6743 27.3721 32.5855C31.586 31.2105 34.6465 27.2184 34.6465 22.5166C34.6465 16.6172 29.9004 11.8711 24.001 11.8711Z" fill="white"/>
<defs>
<linearGradient id="paint0_linear_52_1569" x1="0" y1="23" x2="46" y2="23" gradientUnits="userSpaceOnUse">
<stop offset="0" stop-color="#0CBAF1"/>
<stop offset="1" stop-color="#E95CE9"/>
</linearGradient>
</defs>
</svg>

<svg width="46" height="46" fill="none" xmlns="http://www.w3.org/2000/svg"><circle cx="23" cy="23" r="22.5" fill="#18181B" stroke="url(#a)"/><path fill-rule="evenodd" clip-rule="evenodd" d="M24.001 11.871a10.62 10.62 0 0 0-10.646 10.646c0 4.701 3.061 8.694 7.275 10.113.532.089.71-.222.71-.532v-1.819c-2.972.665-3.593-1.42-3.593-1.42-.488-1.241-1.198-1.552-1.198-1.552-.976-.665.089-.665.089-.665 1.064.088 1.641 1.109 1.641 1.109.931 1.64 2.484 1.153 3.105.887.089-.71.355-1.153.665-1.42-2.35-.266-4.834-1.197-4.834-5.278 0-1.153.399-2.13 1.108-2.839-.088-.266-.488-1.33.09-2.839 0 0 .886-.266 2.927 1.11A10.689 10.689 0 0 1 24 17.015c.887 0 1.819.134 2.661.355 2.04-1.375 2.928-1.109 2.928-1.109.576 1.464.222 2.529.089 2.84.665.753 1.109 1.685 1.109 2.838 0 4.08-2.484 4.968-4.88 5.234.4.31.71.976.71 1.952v2.927c0 .266.178.621.754.533a10.593 10.593 0 0 0 7.275-10.07A10.62 10.62 0 0 0 24 11.872Z" fill="#fff"/><defs><linearGradient id="a" x1="0" y1="23" x2="46" y2="23" gradientUnits="userSpaceOnUse"><stop offset="0" stop-color="#0CBAF1"/><stop offset="1" stop-color="#E95CE9"/></linearGradient></defs></svg>
